Origami/64x64/apps/mail.ru-cloud.svg

<svg width="64" height="64" version="1" xmlns="http://www.w3.org/2000/svg">
 <path d="m32.996094 12c-4.028296 0.002653-7.766094 1.562755-10.769532 4.058594-0.074192-0.00131-0.136658-0.058465-0.210938-0.058594h-0.015624c-7.214058 0-13.102623 5.734886-13.753906 12.800782-2.5836422 2.732928-4.2442334 6.291438-4.2460938 10.195312v0.003906c0 8.189514 6.810486 15 15 15 2.08711 2.4e-5 4.042504-0.66078 5.90625-1.472656 2.221324 0.954062 4.625598 1.472004 7.089844 1.472656h0.0236c1.89616-0.0044 3.756398-0.339002 5.539062-0.921876 1.740154 0.590746 3.565582 0.918692 5.425782 0.921876h0.015462c9.294084 0 17-7.705916 17-17 0-7.556944-5.181582-13.823772-12.082032-15.992188-2.897462-5.347947-8.53908-9.000129-14.910156-9.007812h-4e-3z" style="opacity:.2"/>
 <path d="m32.996094 11c-4.028296 0.002653-7.766094 1.562755-10.769532 4.058594-0.074192-0.00131-0.136658-0.058465-0.210938-0.058594h-0.015624c-7.214058 0-13.102623 5.734887-13.753906 12.800782-2.5836422 2.732928-4.2442334 6.291438-4.2460938 10.195312v0.003906c0 8.189514 6.810486 15 15 15 2.08711 2.4e-5 4.042504-0.66078 5.90625-1.472656 2.221324 0.954062 4.625598 1.472004 7.089844 1.472656h0.0236c1.89616-0.0044 3.756398-0.339002 5.539062-0.921876 1.740154 0.590746 3.565582 0.918692 5.425782 0.921876h0.015462c9.294084 0 17-7.705916 17-17 0-7.556944-5.181582-13.823772-12.082032-15.992188-2.897462-5.347947-8.53908-9.000129-14.910156-9.007812h-4e-3z" style="fill:#1da6e8"/>
 <circle cx="19" cy="39" r="7" style="opacity:.2"/>
 <circle cx="19" cy="38" r="7" style="fill:#ffe174"/>
 <circle cx="22" cy="30" r="6" style="opacity:.2"/>
 <circle cx="22" cy="29" r="6" style="fill:#ffd338"/>
 <circle cx="33" cy="30" r="9" style="opacity:.2"/>
 <circle cx="33" cy="28" r="9" style="fill:#ffb822"/>
 <circle cx="43" cy="37" r="9" style="opacity:.2"/>
 <circle cx="43" cy="36" r="9" style="fill:#ff7c2d"/>
 <circle cx="32" cy="36" r="10" style="opacity:.2"/>
 <circle cx="32" cy="35" r="10" style="fill:#ff972d"/>
 <path d="m32.996094 11c-4.028296 0.002653-7.766094 1.562755-10.769532 4.058594-0.074192-0.00131-0.136657-0.058465-0.210937-0.058594h-0.007813-0.007812c-7.214058 0-13.102623 5.734886-13.753906 12.800781-2.5836423 2.732928-4.2442334 6.291439-4.2460938 10.195313v0.003906c0 0.169947 0.0195735 0.335196 0.0253906 0.503906 0.1355321-3.708985 1.7468859-7.086367 4.2207032-9.703125 0.6512835-7.065895 6.5398482-12.800781 13.753906-12.800781h0.007812 0.007813c0.07428 1.29e-4 0.136745 0.057284 0.210937 0.058594 3.003438-2.495839 6.741236-4.055941 10.769532-4.058594h0.007812 0.003906c6.371076 0.007683 12.012695 3.659865 14.910157 9.007812 6.733833 2.116058 11.816378 8.139092 12.058593 15.451172 0.004246-0.153861 0.023438-0.304214 0.023438-0.458984 0-7.556944-5.181581-13.823772-12.082031-15.992188-2.897462-5.347947-8.539081-9.000129-14.910157-9.007812h-0.003906-0.007812z" style="fill:#ffffff;opacity:.2"/>
</svg>

<svg xmlns="http://www.w3.org/2000/svg" width="64" height="64" version="1">
 <path style="opacity:0.2" d="M 32.996094,12 C 28.967798,12.002653 25.23,13.562755 22.226562,16.058594 22.15237,16.057284 22.089904,16.000129 22.015624,16 H 22.007812 22 C 14.785942,16 8.8973774,21.734886 8.2460938,28.800782 5.6624516,31.53371 4.0018604,35.09222 4,38.996094 V 39 c 0,8.189514 6.810486,15 15,15 2.08711,2.4e-5 4.042504,-0.66078 5.90625,-1.472656 2.221324,0.954062 4.625598,1.472004 7.089844,1.472656 h 0.0118 0.0118 c 1.89616,-0.0044 3.756398,-0.339002 5.539062,-0.921876 C 39.29891,53.66887 41.124338,53.996816 42.984538,54 h 0.0078 H 43 C 52.294084,54 60,46.294084 60,37 60,29.443056 54.818418,23.176228 47.917968,21.007812 45.020506,15.659865 39.378888,12.007683 33.007812,12 h -0.004 z"/>
 <path style="fill:#1da6e8" d="M 32.996094,11 C 28.967798,11.002653 25.23,12.562755 22.226562,15.058594 22.15237,15.057284 22.089904,15.000129 22.015624,15 H 22.007812 22 C 14.785942,15 8.8973774,20.734887 8.2460938,27.800782 5.6624516,30.53371 4.0018604,34.09222 4,37.996094 V 38 c 0,8.189514 6.810486,15 15,15 2.08711,2.4e-5 4.042504,-0.66078 5.90625,-1.472656 2.221324,0.954062 4.625598,1.472004 7.089844,1.472656 h 0.0118 0.0118 c 1.89616,-0.0044 3.756398,-0.339002 5.539062,-0.921876 C 39.29891,52.66887 41.124338,52.996816 42.984538,53 h 0.0078 H 43 C 52.294084,53 60,45.294084 60,36 60,28.443056 54.818418,22.176228 47.917968,20.007812 45.020506,14.659865 39.378888,11.007683 33.007812,11 h -0.004 z"/>
 <circle style="opacity:0.2" cx="19" cy="39" r="7"/>
 <circle style="fill:#ffe174" cx="19" cy="38" r="7"/>
 <circle style="opacity:0.2" cx="22" cy="30" r="6"/>
 <circle style="fill:#ffd338" cx="22" cy="29" r="6"/>
 <circle style="opacity:0.2" cx="33" cy="30" r="9"/>
 <circle style="fill:#ffb822" cx="33" cy="28" r="9"/>
 <circle style="opacity:0.2" cx="43" cy="37" r="9"/>
 <circle style="fill:#ff7c2d" cx="43" cy="36" r="9"/>
 <circle style="opacity:0.2" cx="32" cy="36" r="10"/>
 <circle style="fill:#ff972d" cx="32" cy="35" r="10"/>
 <path style="opacity:0.2;fill:#ffffff" d="M 32.996094 11 C 28.967798 11.002653 25.23 12.562755 22.226562 15.058594 C 22.15237 15.057284 22.089905 15.000129 22.015625 15 L 22.007812 15 L 22 15 C 14.785942 15 8.8973773 20.734886 8.2460938 27.800781 C 5.6624515 30.533709 4.0018604 34.09222 4 37.996094 L 4 38 C 4 38.169947 4.0195735 38.335196 4.0253906 38.503906 C 4.1609227 34.794921 5.7722765 31.417539 8.2460938 28.800781 C 8.8973773 21.734886 14.785942 16 22 16 L 22.007812 16 L 22.015625 16 C 22.089905 16.000129 22.15237 16.057284 22.226562 16.058594 C 25.23 13.562755 28.967798 12.002653 32.996094 12 L 33.003906 12 L 33.007812 12 C 39.378888 12.007683 45.020507 15.659865 47.917969 21.007812 C 54.651802 23.12387 59.734347 29.146904 59.976562 36.458984 C 59.980808 36.305123 60 36.15477 60 36 C 60 28.443056 54.818419 22.176228 47.917969 20.007812 C 45.020507 14.659865 39.378888 11.007683 33.007812 11 L 33.003906 11 L 32.996094 11 z"/>
</svg>
